X:0772
M:C|
L:1/8
Q:1/2=112
K:A Mixolydian
                                      [2 cA  c/d/e ccde |E2  c/d/e  dBG ||\
  c>A c/d/e a>b.a.g|g>age      dBGg  |   afge      fdec |dBcA       dBG |]

